X:242
T: FRITZ STEFF DER STEHT HUEBSCH FEINE
N: Z0241
O: Europa, Mitteleuropa, Deutschland, Kuhlaendchen
R: Handwerker - Lied, bei der Arbeit (Flachsbrechen) ; Brechhaus - Lied
M: 2/4
L: 1/16
K: G
D2 | G2G2B2G2 | d4ed
B2 | d2d2dcA2 | G2G2B2
D2 | G2G2BAG2 | d4ed
B2 | d2d2dcA2 | F4G2

